Adwaita++/actions/22/query-free-busy.svg

<svg height="22" viewBox="0 0 22 22" width="22" xmlns="http://www.w3.org/2000/svg">
  <path d="m11 3c-2.2091-.0000055-4 1.7909-4 4 .0000166 2.2091 1.7909 4 4 4 2.2091.000006 4-1.7909 4-4s-1.791-4-4-4zm0 8.986328c-4.028.0048-7.4965 3.017672-8 7.013672h9.712891c-1.0343-.827-1.712891-2.082-1.712891-3.5 0-1.403.665341-2.659228 1.681641-3.486328-.7385-.0145-1.494341-.025944-1.681641-.027344zm4.5.013672a3.5 3.5 0 0 0 -3.5 3.5 3.5 3.5 0 0 0 3.5 3.5 3.5 3.5 0 0 0 3.5-3.5 3.5 3.5 0 0 0 -3.5-3.5zm-.5 1h1v1h-1zm0 2h1v3h-1z" fill="#444"/>
</svg>

<svg xmlns="http://www.w3.org/2000/svg" width="22" height="22" version="1.1" viewBox="0 0 22 22">
 <defs>
  <style id="current-color-scheme" type="text/css">
   .ColorScheme-Text { color:#444444; } .ColorScheme-Highlight { color:#4285f4; }
  </style>
 </defs>
 <path style="fill:currentColor" class="ColorScheme-Text" d="m 11,3 c -2.2091,-5.5e-6 -4,1.7909 -4,4 1.66e-5,2.2091 1.7909,4 4,4 2.2091,6e-6 4,-1.7909 4,-4 0,-2.2091 -1.791,-4 -4,-4 z m 0,8.986328 C 6.972,11.991128 3.5035,15.004 3,19 h 9.712891 C 11.678591,18.173 11,16.918 11,15.5 11,14.097 11.665341,12.840772 12.681641,12.013672 11.943141,11.999172 11.1873,11.987728 11,11.986328 Z M 15.5,12 A 3.5,3.5 0 0 0 12,15.5 3.5,3.5 0 0 0 15.5,19 3.5,3.5 0 0 0 19,15.5 3.5,3.5 0 0 0 15.5,12 Z M 15,13 h 1 v 1 h -1 z m 0,2 h 1 v 3 h -1 z"/>
</svg>
